content/about/community/partners/envoy.svg

<svg width="522" height="169" xmlns="http://www.w3.org/2000/svg" xmlns:xlink="http://www.w3.org/1999/xlink"><defs><path id="a" d="M0 .449V87.94h91.22V.449z"/><path id="c" d="M.695.484h191.162v162.554H.695z"/></defs><g fill="none" fill-rule="evenodd"><path d="M294.535 85.529c-.072-2.163-.415-4.146-1.028-5.95-.612-1.802-1.532-3.369-2.757-4.704-1.228-1.334-2.759-2.381-4.598-3.137-1.839-.757-3.985-1.137-6.436-1.137-2.379 0-4.561.451-6.544 1.352-1.985.904-3.661 2.075-5.031 3.516a16.276 16.276 0 0 0-3.191 4.814c-.757 1.768-1.135 3.516-1.135 5.246h30.72zm-30.72 7.788c0 2.237.487 4.274 1.46 6.113a15.215 15.215 0 0 0 3.84 4.705c1.585 1.298 3.424 2.308 5.517 3.028a19.718 19.718 0 0 0 6.49 1.082c3.029 0 5.66-.702 7.898-2.109 2.233-1.406 4.289-3.262 6.165-5.571l7.355 5.626c-5.409 6.995-12.981 10.492-22.716 10.492-4.039 0-7.699-.687-10.979-2.055-3.282-1.369-6.058-3.263-8.33-5.68-2.27-2.415-4.021-5.263-5.246-8.544-1.227-3.282-1.839-6.833-1.839-10.657 0-3.821.667-7.372 2.002-10.654 1.333-3.28 3.172-6.129 5.516-8.545 2.343-2.416 5.138-4.309 8.384-5.68 3.244-1.369 6.777-2.055 10.601-2.055 4.543 0 8.383.794 11.52 2.381 3.137 1.586 5.714 3.659 7.734 6.219 2.018 2.561 3.479 5.446 4.381 8.653a36.064 36.064 0 0 1 1.352 9.79v3.461h-41.105zM313.358 64.111h9.735v7.896h.216c1.225-2.74 3.354-4.957 6.382-6.652 3.029-1.694 6.526-2.542 10.492-2.542 2.452 0 4.815.379 7.085 1.136 2.272.758 4.255 1.93 5.95 3.515 1.694 1.588 3.046 3.624 4.057 6.113 1.009 2.487 1.515 5.427 1.515 8.815v32.993h-9.737V85.097c0-2.381-.324-4.417-.972-6.112-.65-1.693-1.515-3.064-2.598-4.11a9.732 9.732 0 0 0-3.731-2.272 13.755 13.755 0 0 0-4.38-.704c-2.021 0-3.895.325-5.626.974-1.731.649-3.244 1.677-4.544 3.083-1.298 1.406-2.308 3.191-3.028 5.354-.721 2.165-1.081 4.725-1.081 7.681v26.394h-9.735V64.111M361.925 64.111h11.251l15.361 39.267 14.711-39.267h10.384l-20.119 51.274h-10.709l-20.879-51.274M424.668 89.747c0 2.598.395 4.995 1.189 7.194.793 2.202 1.911 4.075 3.354 5.626 1.441 1.55 3.207 2.777 5.3 3.677 2.091.903 4.435 1.352 7.031 1.352s4.939-.449 7.031-1.352c2.091-.9 3.857-2.127 5.3-3.677 1.442-1.551 2.559-3.424 3.354-5.626.793-2.199 1.19-4.596 1.19-7.194 0-2.596-.397-4.992-1.19-7.192-.795-2.199-1.912-4.074-3.354-5.626-1.443-1.549-3.209-2.774-5.3-3.678-2.092-.9-4.435-1.352-7.031-1.352s-4.94.452-7.031 1.352c-2.093.904-3.859 2.129-5.3 3.678-1.443 1.552-2.561 3.427-3.354 5.626-.794 2.2-1.189 4.596-1.189 7.192zm-10.385 0c0-3.748.704-7.246 2.109-10.492 1.406-3.245 3.335-6.092 5.787-8.546 2.451-2.45 5.336-4.38 8.654-5.787 3.316-1.406 6.885-2.109 10.709-2.109 3.821 0 7.391.703 10.709 2.109 3.316 1.407 6.202 3.337 8.655 5.787a27.409 27.409 0 0 1 5.787 8.546c1.405 3.246 2.109 6.744 2.109 10.492 0 3.751-.704 7.267-2.109 10.548-1.407 3.283-3.337 6.13-5.787 8.546-2.453 2.416-5.339 4.326-8.655 5.733-3.318 1.406-6.888 2.109-10.709 2.109-3.824 0-7.393-.703-10.709-2.109-3.318-1.407-6.203-3.317-8.654-5.733-2.452-2.416-4.381-5.263-5.787-8.546-1.405-3.281-2.109-6.797-2.109-10.548zM469.557 64.111h11.25l15.183 40.024h.218l14.563-40.024h10.384l-24.338 62.307a66.43 66.43 0 0 1-2.694 6.113c-.933 1.837-2.047 3.407-3.338 4.705-1.294 1.298-2.855 2.307-4.688 3.028-1.831.72-4.075 1.082-6.732 1.082-1.437 0-2.892-.091-4.363-.271a15.78 15.78 0 0 1-4.255-1.135l1.184-8.87c1.933.793 3.868 1.189 5.803 1.189 1.504 0 2.776-.199 3.816-.594a7.543 7.543 0 0 0 2.687-1.732 10.143 10.143 0 0 0 1.881-2.65c.5-1.01 1.002-2.163 1.505-3.461l3.151-8.113-21.217-51.598" fill="#000"/><path fill="#953984" d="M56.279 81.853l.322 13.595 14.316 8.876-.321-13.604-14.317-8.867"/><g transform="translate(0 81)"><mask id="b" fill="#fff"><use xlink:href="#a"/></mask><path d="M91.22 57.357l-.313-13.315-12.546-7.774c-.186-.116-.351-.252-.532-.374l.317 13.36 13.074 8.103M46.52 75.284L13.788 55.002l-.796-34.038 16.047-6.92L28.717.449 3.107 11.49c-1.97.857-3.154 2.664-3.106 4.772l.961 40.835c.048 2.107 1.328 4.17 3.351 5.433l39.254 24.326c1.829 1.131 4.035 1.441 5.895.853.197-.062.376-.133.555-.203l24.088-10.384-13.065-8.1-14.52 6.262" fill="#953984" mask="url(#b)"/></g><path d="M152.283 81.075c-.06-2.448-1.547-4.873-3.909-6.331l-47.658-29.537-1.471.635.337 14.292 37.738 23.38.902 38.24 14.433 8.944.787-.34-1.159-49.283" fill="#AC6199"/><g transform="translate(34)"><mask id="d" fill="#fff"><use xlink:href="#c"/></mask><path d="M61.206 148.199l-44.276-27.44-1.088-46.06 20.172-8.689-.374-15.864L4.319 63.648C2.022 64.649.637 66.769.697 69.216l1.275 53.995c.048 2.452 1.542 4.86 3.904 6.319l51.896 32.171c2.138 1.323 4.71 1.682 6.878.997.222-.07.438-.152.647-.246l30.656-13.215-15.244-9.446-19.503 8.408" fill="#AC6199" mask="url(#d)"/><path d="M118.133 137.748l-57.831-35.837-1.422-60.15 56.411-24.313 57.825 35.824 1.422 60.15-56.405 24.326zm67.627-94.493L119.219 2.011C116.764.49 113.838.089 111.335.88a8.05 8.05 0 0 0-.724.268L45.707 29.137c-2.629 1.134-4.21 3.549-4.144 6.353l1.632 69.222c.065 2.804 1.773 5.558 4.469 7.229l66.536 41.231c2.446 1.515 5.373 1.927 7.861 1.141.246-.078.499-.171.746-.277l64.91-27.977c2.629-1.134 4.204-3.561 4.138-6.366l-1.625-69.209c-.066-2.804-1.774-5.559-4.47-7.229z" fill="#C04589" mask="url(#d)"/></g></g></svg>

<?xml version="1.0" encoding="UTF-8" standalone="no"?>
<svg width="522px" height="169px" viewBox="0 0 522 169" version="1.1" xmlns="http://www.w3.org/2000/svg" xmlns:xlink="http://www.w3.org/1999/xlink">
    <!-- Generator: Sketch 45 (43475) - http://www.bohemiancoding.com/sketch -->
    <title>Envoy_Logo_Final_PANTONE-REVERSE</title>
    <desc>Created with Sketch.</desc>
    <defs>
        <polygon id="path-1" points="0 0.449 0 87.94 91.22 87.94 91.22 0.449"></polygon>
        <polygon id="path-3" points="0.695126691 0.484 191.856996 0.484 191.856996 163.037966 0.695126691 163.037966"></polygon>
    </defs>
    <g id="Page-1" stroke="none" stroke-width="1" fill="none" fill-rule="evenodd">
        <g id="Envoy_Logo_Final_PANTONE-REVERSE">
            <path d="M294.535,85.529 C294.463,83.366 294.12,81.383 293.507,79.579 C292.895,77.777 291.975,76.21 290.75,74.875 C289.522,73.541 287.991,72.494 286.152,71.738 C284.313,70.981 282.167,70.601 279.716,70.601 C277.337,70.601 275.155,71.052 273.172,71.953 C271.187,72.857 269.511,74.028 268.141,75.469 C266.771,76.912 265.708,78.517 264.95,80.283 C264.193,82.051 263.815,83.799 263.815,85.529 L294.535,85.529 Z M263.815,93.317 C263.815,95.554 264.302,97.591 265.275,99.43 C266.249,101.269 267.529,102.837 269.115,104.135 C270.7,105.433 272.539,106.443 274.632,107.163 C276.723,107.886 278.886,108.245 281.122,108.245 C284.151,108.245 286.782,107.543 289.02,106.136 C291.253,104.73 293.309,102.874 295.185,100.565 L302.54,106.191 C297.131,113.186 289.559,116.683 279.824,116.683 C275.785,116.683 272.125,115.996 268.845,114.628 C265.563,113.259 262.787,111.365 260.515,108.948 C258.245,106.533 256.494,103.685 255.269,100.404 C254.042,97.122 253.43,93.571 253.43,89.747 C253.43,85.926 254.097,82.375 255.432,79.093 C256.765,75.813 258.604,72.964 260.948,70.548 C263.291,68.132 266.086,66.239 269.332,64.868 C272.576,63.499 276.109,62.813 279.933,62.813 C284.476,62.813 288.316,63.607 291.453,65.194 C294.59,66.78 297.167,68.853 299.187,71.413 C301.205,73.974 302.666,76.859 303.568,80.066 C304.469,83.276 304.92,86.54 304.92,89.856 L304.92,93.317 L263.815,93.317 L263.815,93.317 Z" id="Fill-1" fill="black"></path>
            <path d="M313.358,64.111 L323.093,64.111 L323.093,72.007 L323.309,72.007 C324.534,69.267 326.663,67.05 329.691,65.355 C332.72,63.661 336.217,62.813 340.183,62.813 C342.635,62.813 344.998,63.192 347.268,63.949 C349.54,64.707 351.523,65.879 353.218,67.464 C354.912,69.052 356.264,71.088 357.275,73.577 C358.284,76.064 358.79,79.004 358.79,82.392 L358.79,115.385 L349.053,115.385 L349.053,85.097 C349.053,82.716 348.729,80.68 348.081,78.985 C347.431,77.292 346.566,75.921 345.483,74.875 C344.403,73.829 343.159,73.073 341.752,72.603 C340.346,72.134 338.885,71.899 337.372,71.899 C335.351,71.899 333.477,72.224 331.746,72.873 C330.015,73.522 328.502,74.55 327.202,75.956 C325.904,77.362 324.894,79.147 324.174,81.31 C323.453,83.475 323.093,86.035 323.093,88.991 L323.093,115.385 L313.358,115.385 L313.358,64.111" id="Fill-2" fill="black"></path>
            <polyline id="Fill-3" fill="black" points="361.925 64.111 373.176 64.111 388.537 103.378 403.248 64.111 413.632 64.111 393.513 115.385 382.804 115.385 361.925 64.111"></polyline>
            <path d="M424.668,89.747 C424.668,92.345 425.063,94.742 425.857,96.941 C426.65,99.143 427.768,101.016 429.211,102.567 C430.652,104.117 432.418,105.344 434.511,106.244 C436.602,107.147 438.946,107.596 441.542,107.596 C444.138,107.596 446.481,107.147 448.573,106.244 C450.664,105.344 452.43,104.117 453.873,102.567 C455.315,101.016 456.432,99.143 457.227,96.941 C458.02,94.742 458.417,92.345 458.417,89.747 C458.417,87.151 458.02,84.755 457.227,82.555 C456.432,80.356 455.315,78.481 453.873,76.929 C452.43,75.38 450.664,74.155 448.573,73.251 C446.481,72.351 444.138,71.899 441.542,71.899 C438.946,71.899 436.602,72.351 434.511,73.251 C432.418,74.155 430.652,75.38 429.211,76.929 C427.768,78.481 426.65,80.356 425.857,82.555 C425.063,84.755 424.668,87.151 424.668,89.747 Z M414.283,89.747 C414.283,85.999 414.987,82.501 416.392,79.255 C417.798,76.01 419.727,73.163 422.179,70.709 C424.63,68.259 427.515,66.329 430.833,64.922 C434.149,63.516 437.718,62.813 441.542,62.813 C445.363,62.813 448.933,63.516 452.251,64.922 C455.567,66.329 458.453,68.259 460.906,70.709 C463.356,73.163 465.286,76.01 466.693,79.255 C468.098,82.501 468.802,85.999 468.802,89.747 C468.802,93.498 468.098,97.014 466.693,100.295 C465.286,103.578 463.356,106.425 460.906,108.841 C458.453,111.257 455.567,113.167 452.251,114.574 C448.933,115.98 445.363,116.683 441.542,116.683 C437.718,116.683 434.149,115.98 430.833,114.574 C427.515,113.167 424.63,111.257 422.179,108.841 C419.727,106.425 417.798,103.578 416.392,100.295 C414.987,97.014 414.283,93.498 414.283,89.747 L414.283,89.747 Z" id="Fill-4" fill="black"></path>
            <path d="M469.557,64.111 L480.807,64.111 L495.99,104.135 L496.208,104.135 L510.771,64.111 L521.155,64.111 L496.817,126.418 C495.954,128.653 495.056,130.692 494.123,132.531 C493.19,134.368 492.076,135.938 490.785,137.236 C489.491,138.534 487.93,139.543 486.097,140.264 C484.266,140.984 482.022,141.346 479.365,141.346 C477.928,141.346 476.473,141.255 475.002,141.075 C473.529,140.895 472.111,140.517 470.747,139.94 L471.931,131.07 C473.864,131.863 475.799,132.259 477.734,132.259 C479.238,132.259 480.51,132.06 481.55,131.665 C482.587,131.267 483.483,130.692 484.237,129.933 C484.988,129.177 485.615,128.293 486.118,127.283 C486.618,126.273 487.12,125.12 487.623,123.822 L490.774,115.709 L469.557,64.111" id="Fill-5" fill="black"></path>
            <polyline id="Fill-6" fill="#953984" points="56.279 81.853 56.601 95.448 70.917 104.324 70.596 90.72 56.279 81.853"></polyline>
            <g id="Group-10" transform="translate(0.000000, 81.000000)">
                <mask id="mask-2" fill="white">
                    <use xlink:href="#path-1"></use>
                </mask>
                <g id="Clip-8"></g>
                <path d="M91.22,57.357 L90.907,44.042 L78.361,36.268 C78.175,36.152 78.01,36.016 77.829,35.894 L78.146,49.254 L91.22,57.357" id="Fill-7" fill="#953984" mask="url(#mask-2)"></path>
                <path d="M46.52,75.284 L13.788,55.002 L12.992,20.964 L29.039,14.044 L28.717,0.449 L3.107,11.49 C1.137,12.347 -0.047,14.154 0.001,16.262 L0.962,57.097 C1.01,59.204 2.29,61.267 4.313,62.53 L43.567,86.856 C45.396,87.987 47.602,88.297 49.462,87.709 C49.659,87.647 49.838,87.576 50.017,87.506 L74.105,77.122 L61.04,69.022 L46.52,75.284" id="Fill-9" fill="#953984" mask="url(#mask-2)"></path>
            </g>
            <path d="M152.283,81.075 C152.223,78.627 150.736,76.202 148.374,74.744 L100.716,45.207 L99.245,45.842 L99.582,60.134 L137.32,83.514 L138.222,121.754 L152.655,130.698 L153.442,130.358 L152.283,81.075" id="Fill-11" fill="#AC6199"></path>
            <g id="Group-15" transform="translate(34.000000, 0.000000)">
                <mask id="mask-4" fill="white">
                    <use xlink:href="#path-3"></use>
                </mask>
                <g id="Clip-13"></g>
                <path d="M61.206,148.199 L16.93,120.759 L15.842,74.699 L36.014,66.01 L35.64,50.146 L4.319,63.648 C2.022,64.649 0.637,66.769 0.697,69.216 L1.972,123.211 C2.02,125.663 3.514,128.071 5.876,129.53 L57.772,161.701 C59.91,163.024 62.482,163.383 64.65,162.698 C64.872,162.628 65.088,162.546 65.297,162.452 L95.953,149.237 L80.709,139.791 L61.206,148.199" id="Fill-12" fill="#AC6199" mask="url(#mask-4)"></path>
                <path d="M118.133,137.748 L60.302,101.911 L58.88,41.761 L115.291,17.448 L173.116,53.272 L174.538,113.422 L118.133,137.748 Z M185.76,43.255 L119.219,2.011 C116.764,0.49 113.838,0.089 111.335,0.88 C111.089,0.958 110.848,1.047 110.611,1.148 L45.707,29.137 C43.078,30.271 41.497,32.686 41.563,35.49 L43.195,104.712 C43.26,107.516 44.968,110.27 47.664,111.941 L114.2,153.172 C116.646,154.687 119.573,155.099 122.061,154.313 C122.307,154.235 122.56,154.142 122.807,154.036 L187.717,126.059 C190.346,124.925 191.921,122.498 191.855,119.693 L190.23,50.484 C190.164,47.68 188.456,44.925 185.76,43.255 L185.76,43.255 Z" id="Fill-14" fill="#C04589" mask="url(#mask-4)"></path>
            </g>
        </g>
    </g>
</svg>
